outputs/icons/action/share_round.svg

<svg xmlns="http://www.w3.org/2000/svg" width="1200" height="1200" fill="none"><g clip-path="url(#a)"><path fill="#000" d="M900 804c-38 0-72 15-98 38.5L445.5 635c2.5-11.5 4.5-23 4.5-35s-2-23.5-4.5-35L798 359.5c27 25 62.5 40.5 102 40.5 83 0 150-67 150-150s-67-150-150-150-150 67-150 150c0 12 2 23.5 4.5 35L402 490.5c-27-25-62.5-40.5-102-40.5-83 0-150 67-150 150s67 150 150 150c39.5 0 75-15.5 102-40.5l356 208c-2.5 10.5-4 21.5-4 32.5 0 80.5 65.5 146 146 146s146-65.5 146-146-65.5-146-146-146"/></g><defs><clipPath id="a"><path fill="#fff" d="M0 0h1200v1200H0z"/></clipPath></defs></svg>

<svg width="1200" height="1200" viewBox="0 0 1200 1200" fill="none" xmlns="http://www.w3.org/2000/svg"><g clip-path="url(#clip0_231_5353)"><path d="M900 804C862 804 828 819 802 842.5L445.5 635C448 623.5 450 612 450 600C450 588 448 576.5 445.5 565L798 359.5C825 384.5 860.5 400 900 400C983 400 1050 333 1050 250C1050 167 983 100 900 100C817 100 750 167 750 250C750 262 752 273.5 754.5 285L402 490.5C375 465.5 339.5 450 300 450C217 450 150 517 150 600C150 683 217 750 300 750C339.5 750 375 734.5 402 709.5L758 917.5C755.5 928 754 939 754 950C754 1030.5 819.5 1096 900 1096C980.5 1096 1046 1030.5 1046 950C1046 869.5 980.5 804 900 804Z" fill="black"/></g><defs><clipPath id="clip0_231_5353"><path width="24" fill="white" d="M0 0H1200V1200H0V0z"/></clipPath></defs></svg>
